assets/img/ticon9.svg

<svg width="48" height="48" viewBox="0 0 48 48" fill="none" xmlns="http://www.w3.org/2000/svg">
<circle cx="24" cy="24" r="24" fill="#FFC940"/>
<g clip-path="url(#clip0)">
<path d="M32.9988 18.49C32.9988 17.6606 32.3795 16.9933 31.6173 16.9933H16.3827C15.6205 16.9933 15.0012 17.6606 15.0012 18.49V19.9867H32.9988V18.49Z" fill="black"/>
<path d="M26.0056 29.0048H18.0024C17.4498 29.0048 17.002 28.5567 17.002 28.0038C17.002 27.4509 17.4498 27.0029 18.0024 27.0029H26.0056C26.5582 27.0029 27.006 27.4509 27.006 28.0038C26.9965 28.5567 26.5487 29.0048 26.0056 29.0048ZM23.0044 26.0019H18.0024C17.4498 26.0019 17.002 25.5539 17.002 25.001C17.002 24.4481 17.4498 24 18.0024 24H23.0044C23.557 24 24.0048 24.4481 24.0048 25.001C24.0048 25.5539 23.557 26.0019 23.0044 26.0019ZM15.0012 29.367C15.0012 30.2727 15.6205 31.0067 16.3827 31.0067H31.6173C32.3795 31.0067 32.9988 30.2727 32.9988 29.367V21.9981H15.0012V29.367Z" fill="black"/>
<path d="M16.5065 14H13.4863C12.6669 14 12 14.6673 12 15.4871V18.5091C12 18.7855 12.2191 19.0048 12.4954 19.0048C12.7717 19.0048 12.9909 18.7855 12.9909 18.5091V15.4871C12.9909 15.2107 13.21 14.9914 13.4863 14.9914H16.5065C16.7829 14.9914 17.002 14.7722 17.002 14.4957C17.002 14.2193 16.7829 14 16.5065 14Z" fill="black"/>
<path d="M12 29.5005V32.5224C12 33.3422 12.6669 34.0095 13.4863 34.0095H16.5065C16.7829 34.0095 17.002 33.7903 17.002 33.5138C17.002 33.2374 16.7829 33.0181 16.5065 33.0181H13.4863C13.21 33.0181 12.9909 32.7989 12.9909 32.5224V29.5005C12.9909 29.224 12.7717 29.0048 12.4954 29.0048C12.2191 29.0048 12 29.224 12 29.5005Z" fill="black"/>
<path d="M36 18.5091V15.4871C36 14.6673 35.3331 14 34.5137 14H31.4935C31.2172 14 30.998 14.2193 30.998 14.4957C30.998 14.7722 31.2172 14.9914 31.4935 14.9914H34.5137C34.79 14.9914 35.0092 15.2107 35.0092 15.4871V18.5091C35.0092 18.7855 35.2283 19.0048 35.5046 19.0048C35.7809 19.0048 36 18.7855 36 18.5091Z" fill="black"/>
<path d="M31.4935 34H34.5137C35.3331 34 36 33.3327 36 32.5129V29.491C36 29.2145 35.7809 28.9952 35.5046 28.9952C35.2283 28.9952 35.0092 29.2145 35.0092 29.491V32.5129C35.0092 32.7893 34.79 33.0086 34.5137 33.0086H31.4935C31.2172 33.0086 30.998 33.2278 30.998 33.5043C30.998 33.7808 31.2267 34 31.4935 34Z" fill="black"/>
</g>
<defs>
<clipPath id="clip0">
<rect width="24" height="20" fill="white" transform="translate(12 14)"/>
</clipPath>
</defs>
</svg>

<svg width="48" height="48" fill="none" xmlns="http://www.w3.org/2000/svg"><circle cx="24" cy="24" r="24" fill="#FFC940"/><g clip-path="url(#clip0)" fill="#000"><path d="M32.999 18.49c0-.83-.62-1.497-1.382-1.497H16.383c-.762 0-1.382.668-1.382 1.497v1.497H33V18.49zm-6.993 10.515h-8.004a1 1 0 010-2.002h8.004a1 1 0 011 1 1.013 1.013 0 01-1 1.002zm-3.002-3.003h-5.002a1 1 0 010-2.002h5.002a1 1 0 010 2.002zm-8.003 3.365c0 .906.62 1.64 1.382 1.64h15.234c.762 0 1.382-.734 1.382-1.64v-7.369H15v7.369zM16.506 14h-3.02c-.82 0-1.486.667-1.486 1.487v3.022c0 .276.22.496.495.496.277 0 .496-.22.496-.496v-3.022c0-.276.219-.496.495-.496h3.02a.492.492 0 00.496-.495.492.492 0 00-.495-.496zM12 29.5v3.022c0 .82.667 1.488 1.486 1.488h3.02c.277 0 .496-.22.496-.496a.492.492 0 00-.495-.496h-3.02a.492.492 0 01-.496-.496v-3.021a.492.492 0 00-.496-.496.492.492 0 00-.495.495zm24-10.99v-3.023c0-.82-.667-1.487-1.486-1.487h-3.02a.492.492 0 00-.496.496c0 .276.22.495.495.495h3.02c.277 0 .496.22.496.496v3.022c0 .276.22.496.496.496s.495-.22.495-.496zM31.494 34h3.02c.82 0 1.486-.667 1.486-1.487V29.49a.492.492 0 00-.495-.496.492.492 0 00-.496.496v3.022a.493.493 0 01-.495.496h-3.02a.492.492 0 00-.496.495c0 .277.229.496.495.496z"/></g><defs><clipPath id="clip0"><path fill="#fff" transform="translate(12 14)" d="M0 0h24v20H0z"/></clipPath></defs></svg>
